ZUCCAL
CUT["Heimweh"
    UND MEIN HERZ UND MEIN SINN]
REG[Europa, Mitteleuropa, Steiermark]
KEY[Z1268  08 Eb 3/4]
MEL[31  -5_.-3-3-1  --7-2-5_
    42  -5_.-4-4-2  -3-5-71
    31  -5_.-3-3-1  --7-2-5_
    42  -5_.-4-4--7  -1_0_
    -51  -7-5-6_.4  315_.
    3  -642-7-5-7  1-3-51
    35  4-7-6_.4  315_.
    3  -642-7-5-7  1_0_ //] >>
FCT[Natur und Welt, Liebe]
